X: 207
M: 6/8
L: 1/8
K: C
E | E2 A (A> ^G) A | E2 A A2 (A/ B/) | (c>B) A B2 ^G | A3- A2 ||
d | e2 c d2 B | (c> B) A G2 E | (G> A) B c2 E | D3- D2 ||
d | e2 c d2 B | (c> B) A G2 E | (F> G) A G2 B | c3- c2 |]


